X:1
T:Title
%%score { ( 1 3 ) | ( 2 4 ) }
L:1/8
M:4/4
K:Ab
V:1 treble nm="Grand Piano"
V:3 treble 
V:2 bass 
V:4 bass 
V:1
 z4 z2[Q:1/4=92] E2 | [Ec][Ec][=D_c][E=c] [Fd][Ec][_DB][CA] | [Ec]2 [CE]4 [CF][CA] | %3
 [DG][D_G][D=G][DA] [DGB][EGB][EGc][EGd] | [EAc]6 [=EB]2 | [FA][FA][=EG][FA] [Fd][FA][EB][EA] | %6
 [Ec]2 [CE]4 [EF]2 | z2 .B2 z2 .=E2 |[M:7/8] B-B-B- B- B3 |[M:1/4] e[F=d] | %10
[M:4/4] [Gd]G_G=G [Gc][GB]GE | F2 E4 FA | G_G=GA BBA[FB] | c6 z2 | fc_c=c fcdc | %15
 [=Dc]2 [DF]4 [DA][Dc] | [Ee][F=d][G_d][DB] [A,DF]2 [B,DG]2 |[M:3/4] A6 |] %18
V:2
 z4 z2 C2 | A,,E,A,E, A,,E,A,E, | A,,E,A,E, A,,E,A,E, | E,,E,B,E, E,,E,B,E, | A,,E,A,E, A,,E,G,E, | %5
 D,A,DA, D,A,DA, | A,,E,A,E, A,,E,C,_C, | z A [B,,G,]2 z F B,,2 |[M:7/8] [G,D]G,B, A, G,3 | %9
[M:1/4] [E,G,E][E,A,] |[M:4/4] [E,B,][E,DE][E,DE][E,DE] [E,E][E,D][E,DE][G,D] | %11
 [A,_C=D]2 [A,=C]4 [A,CE][A,CE] | [B,DE][B,DE][E,DE][F,DE] [G,DE][G,DE][F,DE][D,G,] | %13
 G,G,A,F, G,2 [C,B,][C,B,] | [F,=A,E][F,A,E][F,A,E][F,A,E] [F,A,E][F,A,E][F,A,E][F,A,E] | %15
 [B,,A,]2 [B,,A,]4 [B,,F,][B,,A,] | [E,C][E,_C][E,B,][E,G,] E,2 E,2 |[M:3/4] z E, F,D, E,2 |] %18
V:3
 x8 | x8 | x8 | x8 | x8 | x8 | x8 | .[EG]2 E-[Ec] .[=DB]2 [A,D]-[A,DF] |[M:7/8] z EG F E3 | %9
[M:1/4] x2 |[M:4/4] x8 | x8 | x8 | =EEF=D E2 [E_c][E=c] | x8 | x8 | x8 |[M:3/4] [A,C]C DB, C2 |] %18
V:4
 x8 | x8 | x8 | x8 | x8 | x8 | x8 | B,,2 z2 [B,,A,]2 z2 |[M:7/8] E,-E,-E,- E,- E,3 |[M:1/4] x2 | %10
[M:4/4] x8 | x8 | x8 | C,6 z2 | x8 | x8 | x8 |[M:3/4] A,,6 |] %18

